icons/SVG/computer_icon.svg

<?xml version="1.0" encoding="UTF-8"?>
<svg width="300px" height="260px" viewBox="0 0 300 260" version="1.1" xmlns="http://www.w3.org/2000/svg" xmlns:xlink="http://www.w3.org/1999/xlink">
    <!-- Generator: Sketch 42 (36781) - http://www.bohemiancoding.com/sketch -->
    <title>computer_icon</title>
    <desc>Created with Sketch.</desc>
    <defs></defs>
    <g id="Page-1" stroke="none" stroke-width="1" fill="none" fill-rule="evenodd">
        <g id="computer_icon" fill="#1A1918">
            <g id="Computer_Icon">
                <path d="M166.813723,160.701667 L188.298439,160.701667 C190.401386,164.821917 192.318635,168.594524 194.24964,172.361266 C195.612413,175.017632 194.244072,176.454474 191.810011,176.495526 C182.339705,176.656805 172.861212,176.679612 163.390251,176.505627 C160.216015,176.447632 159.574094,174.517506 161.124531,171.760789 C162.998876,168.428684 164.638068,164.963321 166.813723,160.701667" id="Fill-1"></path>
                <path d="M215.826485,135.439246 C215.84679,138.606815 214.619279,139.817867 211.221354,139.80516 C199.997882,139.76313 188.774738,139.74293 177.551921,139.74293 C166.329432,139.74293 155.106616,139.76313 143.883472,139.80516 C140.485873,139.817867 139.258035,138.606815 139.278668,135.439246 C139.372664,120.446564 139.380524,105.453882 139.275393,90.4621779 C139.251157,87.0570902 140.632271,85.882203 144.207052,85.9063133 C153.142205,85.9652857 165.858144,86.0017769 177.551921,86.024584 C189.247009,86.0017769 201.962948,85.9652857 210.897118,85.9063133 C214.472882,85.882203 215.853996,87.0570902 215.82976,90.4621779 C215.724629,105.453882 215.732489,120.446564 215.826485,135.439246 M222.349847,85.5707243 C222.343952,79.9628045 221.82714,79.5226291 215.61917,79.5089449 C202.930087,79.4828797 190.241659,79.4600727 177.551921,79.4362882 C164.863493,79.4600727 152.174738,79.4828797 139.485655,79.5089449 C133.278013,79.5226291 132.761528,79.9628045 132.754651,85.5707243 C132.737293,106.821977 132.799192,128.074534 132.696026,149.325461 C132.678013,153.124133 133.40607,155.215536 138.249956,155.180348 C151.351048,155.084885 164.45214,155.047416 177.551921,155.043832 C190.653013,155.047416 203.754105,155.084885 216.854541,155.180348 C221.69941,155.215536 222.42714,153.124133 222.408799,149.325461 C222.306288,128.074534 222.36786,106.821977 222.349847,85.5707243" id="Fill-3"></path>
                <path d="M112.697031,97.2642406 L88.8224672,97.2642406 C87.0984498,97.2642406 85.7003057,95.8609574 85.7003057,94.131208 C85.7003057,92.4011328 87.0984498,90.9991529 88.8224672,90.9991529 L112.697031,90.9991529 C114.421048,90.9991529 115.819192,92.4011328 115.819192,94.131208 C115.819192,95.8609574 114.421048,97.2642406 112.697031,97.2642406 M112.697031,110.576045 L88.8224672,110.576045 C87.0984498,110.576045 85.7003057,109.172762 85.7003057,107.443013 C85.7003057,105.714241 87.0984498,104.310957 88.8224672,104.310957 L94.5794541,104.310957 C98.7270524,104.220055 102.877926,104.223313 107.026834,104.310957 L112.697031,104.310957 C114.421048,104.310957 115.819192,105.714241 115.819192,107.443013 C115.819192,109.172762 114.421048,110.576045 112.697031,110.576045 M106.463188,156.592787 C105.92345,159.918376 103.75238,161.718501 100.462533,161.728602 C97.4055459,161.739028 94.9695197,158.620657 95.1968122,155.425068 C95.4355677,152.078952 98.0527074,149.887524 101.419192,150.211709 C104.646485,150.523188 106.98655,153.364291 106.463188,156.592787 M123.875306,93.2645414 C123.798668,84.7291779 118.982293,79.7601805 110.601616,79.5568722 C104.025852,79.3965714 97.4399345,79.3939649 90.8641703,79.5637143 C83.2217031,79.7601805 77.7892795,84.9201053 77.72869,92.6595038 C77.5446288,116.27617 77.5436463,139.897724 77.7309825,163.514391 C77.7938646,171.420932 83.4401528,176.548927 91.2791266,176.624842 C97.1265066,176.680556 102.976179,176.63983 108.824869,176.637223 C118.866681,176.631684 123.686659,171.916496 123.731201,161.913013 C123.780328,150.618652 123.742664,139.323313 123.742664,128.026672 L123.901507,128.026672 C123.901507,116.439729 123.979127,104.851158 123.875306,93.2645414" id="Fill-5"></path>
                <path d="M80.3781878,249.963707 L219.622074,249.963707 L289.24369,130.000424 L219.622074,10.0364887 L80.3781878,10.0364887 L10.7562445,130.000424 L80.3781878,249.963707 Z M222.458319,259.738143 L77.5419432,259.738143 C75.7868122,259.738143 74.1649782,258.806639 73.2875764,257.294534 L0.829388646,132.444033 C-0.0483406114,130.931927 -0.0483406114,129.06892 0.829388646,127.556815 L73.2875764,2.70566165 C74.1649782,1.19355639 75.7868122,0.262052632 77.5419432,0.262052632 L222.458319,0.262052632 C224.21345,0.262052632 225.834956,1.19355639 226.712686,2.70566165 L299.170546,127.556815 C300.048275,129.06892 300.048275,130.931927 299.170546,132.444033 L226.712686,257.294534 C225.834956,258.806639 224.21345,259.738143 222.458319,259.738143 L222.458319,259.738143 Z" id="Fill-7"></path>
            </g>
        </g>
    </g>
</svg>

<svg width="300" height="260" viewBox="0 0 300 260" xmlns="http://www.w3.org/2000/svg"><title>computer_icon</title><g fill="#FFF" fill-rule="evenodd"><path d="M166.814 160.702h21.484c2.103 4.12 4.02 7.893 5.952 11.66 1.362 2.656-.006 4.092-2.44 4.134-9.47.16-18.949.184-28.42.01-3.174-.058-3.816-1.988-2.265-4.745 1.874-3.332 3.513-6.798 5.689-11.06m49.012-25.261c.02 3.167-1.207 4.378-4.605 4.365a8990.96 8990.96 0 0 0-67.338 0c-3.397.013-4.625-1.198-4.604-4.366.094-14.992.102-29.985-.004-44.977-.024-3.405 1.357-4.58 4.932-4.556 8.935.06 21.651.096 33.345.119a8033.71 8033.71 0 0 0 33.345-.119c3.576-.024 4.957 1.151 4.933 4.556a3386.379 3386.379 0 0 0-.004 44.977m6.524-49.868c-.006-5.608-.523-6.048-6.73-6.062-12.69-.026-25.378-.049-38.068-.073-12.689.024-25.377.047-38.066.073-6.208.014-6.724.454-6.731 6.062-.018 21.251.044 42.504-.059 63.754-.018 3.8.71 5.89 5.554 5.855 13.101-.095 26.202-.133 39.302-.136 13.101.003 26.202.04 39.303.136 4.844.036 5.572-2.056 5.554-5.855-.103-21.25-.041-42.503-.06-63.754M112.697 97.264H88.822a3.128 3.128 0 0 1-3.122-3.133A3.127 3.127 0 0 1 88.822 91h23.875a3.127 3.127 0 0 1 3.122 3.132 3.128 3.128 0 0 1-3.122 3.133m0 13.312H88.822a3.128 3.128 0 0 1-3.122-3.133 3.128 3.128 0 0 1 3.122-3.132h5.757a289.29 289.29 0 0 1 12.448 0h5.67a3.128 3.128 0 0 1 3.122 3.132 3.128 3.128 0 0 1-3.122 3.133m-6.234 46.017c-.54 3.325-2.71 5.126-6 5.136-3.057.01-5.493-3.108-5.266-6.304.239-3.346 2.856-5.537 6.222-5.213 3.227.311 5.568 3.152 5.044 6.38m17.412-63.327c-.076-8.536-4.893-13.505-13.273-13.708a393.504 393.504 0 0 0-19.738.007C83.222 79.76 77.79 84.92 77.73 92.66c-.184 23.616-.185 47.238.002 70.854.063 7.907 5.71 13.035 13.548 13.11 5.848.057 11.697.016 17.546.013 10.042-.005 14.862-4.72 14.906-14.724.05-11.294.012-22.59.012-33.886h.159c0-11.587.077-23.176-.027-34.762"/><path d="M80.378 249.964h139.244L289.244 130 219.622 10.036H80.378L10.756 130l69.622 119.964zm142.08 9.774H77.542a4.917 4.917 0 0 1-4.254-2.443L.829 132.444a4.865 4.865 0 0 1 0-4.887L73.288 2.706A4.917 4.917 0 0 1 77.542.262h144.916a4.92 4.92 0 0 1 4.255 2.444l72.458 124.85a4.865 4.865 0 0 1 0 4.888l-72.458 124.85a4.917 4.917 0 0 1-4.255 2.444z"/></g></svg>
